svg/disk-failed.svg

<?xml version="1.0" encoding="UTF-8"?>
<svg xmlns="http://www.w3.org/2000/svg" xmlns:xlink="http://www.w3.org/1999/xlink" width="32" height="32" viewBox="0 0 32 32">
<defs>
<clipPath id="clip-0">
<path clip-rule="nonzero" d="M 0 32 L 0 0 L 32 0 L 32 22.214844 C 31.300781 18.261719 27.828125 15.230469 23.679688 15.230469 C 19.035156 15.230469 15.230469 19.035156 15.230469 23.679688 C 15.230469 27.828125 18.261719 31.300781 22.214844 32 Z M 32 32 L 25.144531 32 C 28.636719 31.371094 31.371094 28.636719 32 25.144531 Z M 32 32 "/>
</clipPath>
</defs>
<g clip-path="url(#clip-0)">
<path fill-rule="nonzero" fill="rgb(0%, 0%, 0%)" fill-opacity="1" d="M 4.921875 0 C 4.328125 0.0078125 3.824219 0.4375 3.71875 1.019531 L 0.398438 20.640625 C 0.671875 20.539062 0.972656 20.480469 1.28125 20.480469 L 30.71875 20.480469 C 31.019531 20.480469 31.292969 20.546875 31.558594 20.640625 L 28.28125 1.019531 C 28.171875 0.4375 27.671875 0.0117188 27.082031 0 Z M 16 5.121094 C 20.945312 5.121094 24.960938 7.984375 24.960938 11.519531 C 24.960938 15.054688 20.945312 17.921875 16 17.921875 C 11.054688 17.921875 7.039062 15.054688 7.039062 11.519531 C 7.039062 7.984375 11.054688 5.121094 16 5.121094 M 16 9.601562 C 14.941406 9.601562 14.078125 10.171875 14.078125 10.878906 C 14.078125 11.585938 14.941406 12.160156 16 12.160156 C 17.058594 12.160156 17.921875 11.585938 17.921875 10.878906 C 17.921875 10.171875 17.058594 9.601562 16 9.601562 M 1.28125 21.761719 C 0.574219 21.761719 0 22.332031 0 23.039062 L 0 30.71875 C 0 31.425781 0.574219 32 1.28125 32 L 30.71875 32 C 31.425781 32 32 31.425781 32 30.71875 L 32 23.039062 C 32 22.332031 31.425781 21.761719 30.71875 21.761719 Z M 25.601562 25.601562 C 26.066406 25.589844 26.5 25.832031 26.738281 26.230469 C 26.972656 26.632812 26.972656 27.128906 26.738281 27.53125 C 26.5 27.933594 26.0625 28.171875 25.597656 28.160156 C 24.90625 28.140625 24.355469 27.570312 24.355469 26.878906 C 24.359375 26.1875 24.910156 25.621094 25.601562 25.601562 "/>
</g>
<path fill-rule="nonzero" fill="rgb(100%, 9.803922%, 9.803922%)" fill-opacity="1" d="M 23.679688 16.640625 C 19.808594 16.640625 16.640625 19.808594 16.640625 23.679688 C 16.640625 27.550781 19.808594 30.71875 23.679688 30.71875 C 27.550781 30.71875 30.71875 27.550781 30.71875 23.679688 C 30.71875 19.808594 27.550781 16.640625 23.679688 16.640625 M 24.382812 27.058594 C 24.382812 27.128906 24.3125 27.199219 24.242188 27.199219 L 23.117188 27.199219 C 23.042969 27.195312 22.980469 27.132812 22.976562 27.058594 L 22.976562 25.933594 C 22.976562 25.863281 23.046875 25.792969 23.117188 25.792969 L 24.242188 25.792969 C 24.3125 25.792969 24.382812 25.863281 24.382812 25.933594 Z M 24.382812 24.242188 C 24.382812 24.3125 24.3125 24.382812 24.242188 24.382812 L 23.117188 24.382812 C 23.042969 24.378906 22.980469 24.316406 22.976562 24.242188 L 22.976562 20.300781 C 22.976562 20.230469 23.046875 20.160156 23.117188 20.160156 L 24.242188 20.160156 C 24.3125 20.160156 24.382812 20.230469 24.382812 20.300781 Z M 24.382812 24.242188 "/>
</svg>

<svg role="img" viewBox="0 0 32 32" xmlns="http://www.w3.org/2000/svg"><defs><clipPath id="disk-failed_svg__a"><path d="M0 32V0h32v22.215c-.7-3.953-4.172-6.985-8.32-6.985-4.645 0-8.45 3.805-8.45 8.45 0 4.148 3.032 7.62 6.985 8.32Zm32 0h-6.855A8.49 8.49 0 0 0 32 25.145Zm0 0"/></clipPath></defs><g clip-path="url(#disk-failed_svg__a)"><path d="M4.922 0a1.24 1.24 0 0 0-1.203 1.02L.399 20.64c.273-.1.574-.16.882-.16H30.72c.3 0 .574.067.84.16L28.28 1.02A1.24 1.24 0 0 0 27.082 0ZM16 5.121c4.945 0 8.96 2.863 8.96 6.399s-4.015 6.402-8.96 6.402-8.96-2.867-8.96-6.402 4.014-6.4 8.96-6.4m0 4.48c-1.059 0-1.922.57-1.922 1.278 0 .707.863 1.281 1.922 1.281s1.922-.574 1.922-1.281S17.059 9.602 16 9.602M1.281 21.762c-.707 0-1.281.57-1.281 1.277v7.68C0 31.426.574 32 1.281 32H30.72c.707 0 1.281-.574 1.281-1.281v-7.68c0-.707-.574-1.277-1.281-1.277Zm24.32 3.84c.708 0 1.278.574 1.278 1.28a1.279 1.279 0 1 1-1.277-1.281"/></g><path d="M23.68 16.64c-3.871 0-7.04 3.169-7.04 7.04s3.169 7.039 7.04 7.039 7.039-3.168 7.039-7.04c0-3.87-3.168-7.038-7.04-7.038m.704 10.418c0 .07-.07.14-.14.14h-1.126a.15.15 0 0 1-.14-.14v-1.125c0-.07.07-.141.14-.141h1.125c.07 0 .14.07.14.14Zm0-2.817c0 .07-.07.14-.14.14h-1.126a.15.15 0 0 1-.14-.14v-3.941c0-.07.07-.14.14-.14h1.125c.07 0 .14.07.14.14Zm0 0" fill="rgb(100%, 9.803922%, 9.803922%)"/></svg>
